findly-builder/apps/searchassist/src/assets/icons/resultranking/eye.svg

<svg width="15" height="13" viewBox="0 0 15 13" fill="none" xmlns="http://www.w3.org/2000/svg">
<path d="M1.64453 0L0.941407 0.703125L3.24219 3.00781C1.01562 4.23828 0.136719 6.16016 0.0859377 6.27734L0 6.47656L0.0859377 6.67578C0.160157 6.85156 2.01953 10.9766 7.41797 10.9766C7.60156 10.9766 7.76562 10.9531 7.94141 10.9453C7.94531 10.9453 7.94922 10.9453 7.94922 10.9453C8.97656 10.8867 9.87109 10.6953 10.6328 10.3984L13.1875 12.957L13.8984 12.2461L11.6016 9.95312L10.918 9.26953L10.8555 9.21094L8.76953 7.11719L6.77734 5.125L5.33203 3.68359L4.98828 3.33984L4.19922 2.55469L1.64453 0ZM7.41797 1.97656C6.86328 1.97656 6.35937 2.03125 5.87891 2.10938L6.80859 3.03906C7.00781 3.00391 7.20703 2.97656 7.41797 2.97656C9.34766 2.97656 10.918 4.54688 10.918 6.47656C10.918 6.6875 10.8906 6.88672 10.8555 7.08594L11.668 7.89844C11.8164 7.44922 11.918 6.97656 11.918 6.47656C11.918 5.49219 11.5898 4.58594 11.0508 3.84375C12.6602 4.71094 13.4688 5.98438 13.7344 6.47656C13.5391 6.83984 13.0391 7.63672 12.1445 8.375L12.8555 9.08594C14.1602 7.97266 14.7109 6.76953 14.75 6.67578L14.8398 6.47656L14.75 6.27734C14.6758 6.10156 12.8164 1.97656 7.41797 1.97656ZM3.78516 3.85938C3.24609 4.59766 2.91797 5.49609 2.91797 6.47656C2.91797 7.46094 3.24609 8.36719 3.78516 9.10547C2.17578 8.24219 1.36719 6.96875 1.10156 6.47656C1.36719 5.98438 2.18359 4.72656 3.78516 3.85938Z" fill="#FF784B"/>
</svg>

<svg width="15" height="13" fill="none" xmlns="http://www.w3.org/2000/svg"><path d="M1.645 0 .94.703l2.301 2.305C1.016 4.238.137 6.16.086 6.278L0 6.476l.086.199c.074.176 1.934 4.3 7.332 4.3.184 0 .348-.023.523-.03h.008c1.028-.06 1.922-.25 2.684-.548l2.555 2.559.71-.71-2.296-2.294-.684-.683-.063-.06L8.77 7.118 6.777 5.125 5.332 3.684l-.344-.344-.789-.785L1.645 0Zm5.773 1.977a9.45 9.45 0 0 0-1.54.132l.93.93c.2-.035.399-.062.61-.062 1.93 0 3.5 1.57 3.5 3.5 0 .21-.027.41-.063.609l.813.812c.148-.449.25-.921.25-1.421 0-.985-.328-1.891-.867-2.633 1.61.867 2.418 2.14 2.683 2.633a6.637 6.637 0 0 1-1.59 1.898l.711.71c1.305-1.112 1.856-2.315 1.895-2.41l.09-.198-.09-.2c-.074-.175-1.934-4.3-7.332-4.3ZM3.785 3.859a4.42 4.42 0 0 0-.867 2.618c0 .984.328 1.89.867 2.628-1.61-.863-2.418-2.136-2.683-2.628.265-.493 1.082-1.75 2.683-2.618Z" fill="#FF784B"/></svg>
